dist/icons/socials/linkedin.svg

<svg width="30" height="30" viewBox="0 0 30 30" fill="none" xmlns="http://www.w3.org/2000/svg">
<path d="M26.375 1.875H3.86914C2.83789 1.875 2 2.72461 2 3.76758V26.2324C2 27.2754 2.83789 28.125 3.86914 28.125H26.375C27.4062 28.125 28.25 27.2754 28.25 26.2324V3.76758C28.25 2.72461 27.4062 1.875 26.375 1.875ZM9.93359 24.375H6.04297V11.8477H9.93945V24.375H9.93359ZM7.98828 10.1367C6.74023 10.1367 5.73242 9.12305 5.73242 7.88086C5.73242 6.63867 6.74023 5.625 7.98828 5.625C9.23047 5.625 10.2441 6.63867 10.2441 7.88086C10.2441 9.12891 9.23633 10.1367 7.98828 10.1367ZM24.5176 24.375H20.627V18.2812C20.627 16.8281 20.5977 14.959 18.6055 14.959C16.5781 14.959 16.2676 16.541 16.2676 18.1758V24.375H12.377V11.8477H16.1094V13.5586H16.1621C16.6836 12.5742 17.9551 11.5371 19.8477 11.5371C23.7852 11.5371 24.5176 14.1328 24.5176 17.5078V24.375Z" fill="black" fill-opacity="0.5"/>
</svg>

<svg width="30" height="30" fill="none" xmlns="http://www.w3.org/2000/svg"><path d="M26.375 1.875H3.869C2.838 1.875 2 2.725 2 3.768v22.464c0 1.043.838 1.893 1.87 1.893h22.505c1.031 0 1.875-.85 1.875-1.893V3.768a1.888 1.888 0 00-1.875-1.893zm-16.441 22.5H6.043V11.848h3.896v12.527h-.005zM7.988 10.137a2.257 2.257 0 010-4.512 2.26 2.26 0 012.256 2.256 2.253 2.253 0 01-2.256 2.256zm16.53 14.238h-3.891v-6.094c0-1.453-.03-3.322-2.021-3.322-2.028 0-2.338 1.582-2.338 3.217v6.199h-3.891V11.848h3.732v1.71h.053c.522-.984 1.793-2.02 3.686-2.02 3.937 0 4.67 2.595 4.67 5.97v6.867z" fill="#000" fill-opacity=".5"/></svg>
